lib/svgs/trash.svg

<svg xmlns="http://www.w3.org/2000/svg" viewBox="0 0 20 20">
    <path fill="#000" fill-rule="evenodd" d="M17.4 4.726h-4.498V3.96c0-1.08-.88-1.96-1.96-1.96H9.058c-1.081 0-1.96.88-1.96 1.96v.766H2.6a.6.6 0 0 0 0 1.201h1.296L5.786 16.7c.05.287.299.496.591.496h7.246a.6.6 0 0 0 .591-.496l1.89-10.773H17.4a.6.6 0 0 0 0-1.201M5.114 5.927h2.025l.727 10.07h-.985L5.114 5.927m3.955 10.07l-.726-10.07h3.314l-.726 10.07H9.069m4.05 0h-.985l.726-10.07h2.026l-1.767 10.07M9.058 3.201h1.884c.419 0 .76.34.76.759v.766H8.298V3.96a.76.76 0 0 1 .76-.759"/>
</svg>

<?xml version="1.0" encoding="UTF-8" standalone="no"?>
<svg width="20px" height="20px" viewBox="0 0 20 20" version="1.1" xmlns="http://www.w3.org/2000/svg" xmlns:xlink="http://www.w3.org/1999/xlink">
    <defs></defs>
    <g id="Icons" stroke="none" stroke-width="1" fill="none" fill-rule="evenodd">
        <g id="Web" transform="translate(-433.000000, -1954.000000)" fill="#000000">
            <g id="operation/trash" transform="translate(433.000000, 1954.000000)">
                <path d="M17.4,4.726 L12.902,4.726 L12.902,3.96 C12.902,2.88 12.022,2 10.942,2 L9.058,2 C7.977,2 7.098,2.88 7.098,3.96 L7.098,4.726 L2.6,4.726 C2.268,4.726 2,4.995 2,5.327 C2,5.658 2.268,5.927 2.6,5.927 L3.896,5.927 L5.786,16.7 C5.836,16.987 6.085,17.196 6.377,17.196 L8.511,17.196 L11.489,17.196 L13.623,17.196 C13.914,17.196 14.163,16.987 14.214,16.7 L16.104,5.927 L17.4,5.927 C17.731,5.927 18,5.658 18,5.327 C18,4.995 17.731,4.726 17.4,4.726 L17.4,4.726 L17.4,4.726 M5.114,5.927 L7.139,5.927 L7.866,15.997 L6.881,15.997 L5.114,5.927 L5.114,5.927 L5.114,5.927 M9.069,15.997 L8.343,5.927 L11.657,5.927 L10.931,15.997 L9.069,15.997 L9.069,15.997 L9.069,15.997 M13.119,15.997 L12.134,15.997 L12.86,5.927 L14.886,5.927 L13.119,15.997 L13.119,15.997 L13.119,15.997 M9.058,3.201 L10.942,3.201 C11.361,3.201 11.702,3.541 11.702,3.96 L11.702,4.726 L8.298,4.726 L8.298,3.96 C8.298,3.541 8.639,3.201 9.058,3.201 L9.058,3.201 L9.058,3.201" id="Shape"></path>
            </g>
        </g>
    </g>
</svg>
